src/actions/22/kr_syncbrowse_on.svg

<svg viewBox="0 0 22 22" xmlns="http://www.w3.org/2000/svg">
 <defs>
  <style type="text/css">.ColorScheme-Text {
        color:#2e3440;
      }</style>
 </defs>
 <path class="ColorScheme-Text" d="m3 3v1 15h1 9v-1h-9v-8h3v-0.0097656l0.0078125 0.0097656 2-2h8.9922v5h1v-8h-6.9922l-2-2-0.007812 0.0097656v-0.0097656h-6-1z" fill="currentColor"/>
 <path d="m16.5 14c-1.385 0-2.5 1.115-2.5 2.5 0 0.4334 0.11805 0.83475 0.31055 1.1895l0.75976-0.75976c-0.041024-0.1371-0.070312-0.27889-0.070312-0.42969 0-0.831 0.669-1.5 1.5-1.5 0.15079 0 0.29259 0.029313 0.42969 0.070312l0.75976-0.75976c-0.35464-0.1924-0.75603-0.31055-1.1895-0.31055zm2.1895 1.3105-0.75976 0.75976c0.041029 0.1371 0.070312 0.27889 0.070312 0.42969 0 0.831-0.669 1.5-1.5 1.5-0.15079 0-0.29259-0.029313-0.42969-0.070312l-0.75976 0.75976c0.35464 0.1924 0.75603 0.31055 1.1895 0.31055 1.385 0 2.5-1.115 2.5-2.5 0-0.4334-0.11805-0.83475-0.31055-1.1895z" fill="#bf616a"/>
</svg>

<svg xmlns="http://www.w3.org/2000/svg" viewBox="0 0 22 22">
  <defs id="defs3051">
    <style type="text/css" id="current-color-scheme">
      .ColorScheme-Text {
        color:#2e3440;
      }
      </style>
  </defs>
 <path 
     style="fill:currentColor;fill-opacity:1;stroke:none" 
     d="M 3 3 L 3 4 L 3 19 L 4 19 L 13 19 L 13 18 L 4 18 L 4 10 L 7 10 L 7 9.9902344 L 7.0078125 10 L 9.0078125 8 L 18 8 L 18 13 L 19 13 L 19 5 L 12.007812 5 L 10.007812 3 L 10 3.0097656 L 10 3 L 4 3 L 3 3 z "
     class="ColorScheme-Text"
     />
    <path
     style="fill:#bf616a;fill-opacity:1;stroke:none"
     d="M 16.5 14 C 15.115 14 14 15.115 14 16.5 C 14 16.9334 14.118052 17.334753 14.310547 17.689453 L 15.070312 16.929688 C 15.029288 16.792588 15 16.6508 15 16.5 C 15 15.669 15.669 15 16.5 15 C 16.650791 15 16.792594 15.029313 16.929688 15.070312 L 17.689453 14.310547 C 17.334808 14.118147 16.933427 14 16.5 14 z M 18.689453 15.310547 L 17.929688 16.070312 C 17.970717 16.207412 18 16.3492 18 16.5 C 18 17.331 17.331 18 16.5 18 C 16.349209 18 16.207406 17.970687 16.070312 17.929688 L 15.310547 18.689453 C 15.665192 18.881853 16.066573 19 16.5 19 C 17.885 19 19 17.885 19 16.5 C 19 16.0666 18.881948 15.665247 18.689453 15.310547 z "
     />
</svg>
